svg/UnitedNationsOCHA-Humanitarian/product_type_report_icon.svg

<svg xmlns="http://www.w3.org/2000/svg" viewBox="0 0 32 32" enable-background="new 0 0 32 32"><path fill="#407cca" d="m18.506 4h-11.75v24h18.488v-17.01l-6.738-6.994m.316 3.131l3.173 3.293h-3.173v-3.293m-10.12 18.926v-20.11h8.661v5.938h5.937v14.172h-14.598m12.523-12.1h-10.447v-.975h10.446v.975zm0 4.04h-10.447v-.972h10.446v.972zm0 4.04h-10.447v-.972h10.446v.972z"/></svg>

<?xml version="1.0" encoding="utf-8"?>
<!-- Generator: Adobe Illustrator 16.0.3, SVG Export Plug-In . SVG Version: 6.00 Build 0)  -->
<!DOCTYPE svg PUBLIC "-//W3C//DTD SVG 1.1//EN" "http://www.w3.org/Graphics/SVG/1.1/DTD/svg11.dtd">
<svg version="1.1" id="Layer_1" xmlns="http://www.w3.org/2000/svg" xmlns:xlink="http://www.w3.org/1999/xlink" x="0px" y="0px"
	 width="32px" height="32px" viewBox="0 0 32 32" enable-background="new 0 0 32 32" xml:space="preserve">
<path fill="#407CCA" d="M18.506,4H6.756v24h18.488V10.994L18.506,4z M18.822,7.131l3.173,3.293h-3.173V7.131z M8.702,26.057V5.947
	h8.661v5.938h5.937v14.172H8.702z M21.225,13.962H10.778v-0.975h10.446V13.962z M21.225,17.997H10.778v-0.972h10.446V17.997z
	 M21.225,22.034H10.778v-0.972h10.446V22.034z"/>
</svg>
